icons/luggage-cart-fill.svg

<svg viewBox="0 0 24 24" fill="currentColor" xmlns="http://www.w3.org/2000/svg"><path d="M5.50045 20C6.32888 20 7.00045 20.6715 7.00045 21.5C7.00045 22.3284 6.32888 23 5.50045 23C4.67203 23 4.00045 22.3284 4.00045 21.5C4.00045 20.6715 4.67203 20 5.50045 20ZM18.5005 20C19.3289 20 20.0005 20.6715 20.0005 21.5C20.0005 22.3284 19.3289 23 18.5005 23C17.672 23 17.0005 22.3284 17.0005 21.5C17.0005 20.6715 17.672 20 18.5005 20ZM2.17203 1.75732L5.99981 5.58532V16.9993L20.0005 17V19H5.00045C4.44817 19 4.00045 18.5522 4.00045 18L3.99981 6.41332L0.757812 3.17154L2.17203 1.75732ZM16.0005 2.99996C16.5527 2.99996 17.0005 3.44768 17.0005 3.99996L16.9998 5.99932L19.9936 5.99996C20.5497 5.99996 21.0005 6.45563 21.0005 6.99536V15.0046C21.0005 15.5543 20.5505 16 19.9936 16H8.0073C7.45123 16 7.00045 15.5443 7.00045 15.0046V6.99536C7.00045 6.44562 7.4504 5.99996 8.0073 5.99996L10.9998 5.99932L11.0005 3.99996C11.0005 3.44768 11.4482 2.99996 12.0005 2.99996H16.0005ZM11.0005 7.99996H10.0005V14H11.0005V7.99996ZM18.0005 7.99996H17.0005V14H18.0005V7.99996ZM15.0005 4.99996H13.0005V5.99996H15.0005V4.99996Z"/></svg>

<svg xmlns="http://www.w3.org/2000/svg" viewBox="0 0 24 24">
    <g>
        <path fill="none" d="M0 0H24V24H0z"/>
        <path d="M5.5 20c.828 0 1.5.672 1.5 1.5S6.328 23 5.5 23 4 22.328 4 21.5 4.672 20 5.5 20zm13 0c.828 0 1.5.672 1.5 1.5s-.672 1.5-1.5 1.5-1.5-.672-1.5-1.5.672-1.5 1.5-1.5zM2.172 1.757l3.827 3.828V17L20 17v2H5c-.552 0-1-.448-1-1V6.413L.756 3.172l1.415-1.415zM16 3c.552 0 1 .448 1 1v2h2.993C20.55 6 21 6.456 21 6.995v8.01c0 .55-.45.995-1.007.995H8.007C7.45 16 7 15.544 7 15.005v-8.01C7 6.445 7.45 6 8.007 6h2.992L11 4c0-.552.448-1 1-1h4zm-5 5h-1v6h1V8zm7 0h-1v6h1V8zm-3-3h-2v1h2V5z"/>
    </g>
</svg>
